img/icons/user/infoPanel/Chart_Pie.svg

<svg width="53" height="52" viewBox="0 0 53 52" fill="none" xmlns="http://www.w3.org/2000/svg">
<path d="M39.2554 40.7616C39.63 41.1674 40.2627 41.1927 40.6685 40.8181C41.0743 40.4435 41.0996 39.8109 40.725 39.4051L39.2554 40.7616ZM26.9902 26H25.9902C25.9902 26.2514 26.0849 26.4936 26.2554 26.6783L26.9902 26ZM26.9902 44.5C16.773 44.5 8.49023 36.2173 8.49023 26H6.49023C6.49023 37.3218 15.6684 46.5 26.9902 46.5V44.5ZM8.49023 26C8.49023 15.7827 16.773 7.5 26.9902 7.5V5.5C15.6684 5.5 6.49023 14.6782 6.49023 26H8.49023ZM26.9902 7.5C37.2075 7.5 45.4902 15.7827 45.4902 26H47.4902C47.4902 14.6782 38.3121 5.5 26.9902 5.5V7.5ZM45.4902 26C45.4902 36.2173 37.2075 44.5 26.9902 44.5V46.5C38.3121 46.5 47.4902 37.3218 47.4902 26H45.4902ZM40.725 39.4051L27.725 25.3217L26.2554 26.6783L39.2554 40.7616L40.725 39.4051ZM27.9902 26V6.5H25.9902V26H27.9902ZM26.9902 27H46.4902V25H26.9902V27Z" fill="#F56311"/>
</svg>

<svg width="53" height="52" fill="none" xmlns="http://www.w3.org/2000/svg"><path d="M39.255 40.762a1 1 0 0 0 1.47-1.357l-1.47 1.357ZM26.99 26h-1a1 1 0 0 0 .265.678L26.99 26Zm0 18.5c-10.217 0-18.5-8.283-18.5-18.5h-2c0 11.322 9.178 20.5 20.5 20.5v-2ZM8.49 26c0-10.217 8.283-18.5 18.5-18.5v-2c-11.322 0-20.5 9.178-20.5 20.5h2Zm18.5-18.5c10.218 0 18.5 8.283 18.5 18.5h2c0-11.322-9.178-20.5-20.5-20.5v2ZM45.49 26c0 10.217-8.282 18.5-18.5 18.5v2c11.322 0 20.5-9.178 20.5-20.5h-2Zm-4.765 13.405-13-14.083-1.47 1.356 13 14.084 1.47-1.357ZM27.99 26V6.5h-2V26h2Zm-1 1h19.5v-2h-19.5v2Z" fill="#F56311"/></svg>
